source/img/sprite/icon-tw.svg

<svg width="16" height="11" viewBox="0 0 16 11" xmlns="http://www.w3.org/2000/svg">
<path d="M13.3758 4.62011C14.2231 4.55022 14.7977 4.16506 15.0189 3.64245C14.7133 3.83019 13.7646 4.03487 13.2407 3.83994C13.215 3.71684 13.1863 3.59991 13.1581 3.49434C12.7589 2.02841 11.392 0.847405 9.9598 0.990077C10.0757 0.943291 10.1932 0.899732 10.3104 0.860627C10.468 0.804161 11.393 0.653668 11.2473 0.327185C11.1246 0.040017 9.99448 0.544209 9.7817 0.610109C10.0626 0.504473 10.5271 0.322766 10.5769 0C10.1466 0.0590258 9.72411 0.262477 9.3977 0.558308C9.51554 0.431453 9.60494 0.276857 9.62391 0.110476C8.47615 0.843722 7.80569 2.322 7.26309 3.75598C6.83704 3.34308 6.45942 3.01793 6.12066 2.83738C5.17032 2.32775 4.03403 1.79603 2.25031 1.13387C2.19557 1.72402 2.54218 2.50872 3.54095 3.03055C3.32456 3.00159 2.92885 3.06622 2.61236 3.14201C2.74125 3.81809 3.16218 4.3751 4.30173 4.64445C3.78095 4.67882 3.51181 4.79733 3.26789 5.05276C3.50508 5.52297 4.08387 6.07637 5.12504 5.96277C3.96746 6.4617 4.65305 7.38567 5.59497 7.24787C3.98812 8.90757 1.45474 8.78559 0 7.39742C3.79824 12.573 12.0547 10.4583 13.2852 5.47317C14.207 5.48102 14.749 5.15384 15.085 4.79312C14.5539 4.88326 13.784 4.79011 13.3758 4.62011Z"/>
</svg>

<svg width="16" height="11" xmlns="http://www.w3.org/2000/svg"><path d="M13.376 4.62c.847-.07 1.422-.455 1.643-.978-.306.188-1.254.393-1.778.198a6.462 6.462 0 00-.083-.346C12.758 2.028 11.392.847 9.96.99c.116-.047.233-.09.35-.13.158-.056 1.083-.206.937-.533C11.125.04 9.994.544 9.782.61c.28-.106.745-.287.795-.61-.43.059-.853.262-1.18.558A.81.81 0 009.625.11c-1.148.734-1.818 2.212-2.36 3.646-.427-.413-.805-.738-1.143-.919-.95-.51-2.087-1.041-3.87-1.703-.055.59.291 1.375 1.29 1.897-.216-.03-.612.035-.929.111.13.676.55 1.233 1.69 1.502-.521.035-.79.153-1.034.409.237.47.816 1.023 1.857.91-1.158.499-.472 1.423.47 1.285-1.607 1.66-4.14 1.538-5.595.15 3.798 5.175 12.055 3.06 13.285-1.925.922.008 1.464-.32 1.8-.68-.531.09-1.301-.003-1.71-.173z"/></svg>
